X:164
T:Boys of Portaferry, The
T:The Pullet
S:Session, Green Tree, Edinburgh
Z:Nigel Gatherer
M:4/4
L:1/8
K:G
BA|G3 B AGAB|G2 BG AGED|G3 B AB c2|dBGB c2:|
BA|Bdgd Bdgd|Bdgd (3cdc BA|Bdgd e2 ef|gedB c2:|
<end>
<start>
